X:5
T:Es wollte ein Mdchen...
R:Volksweise
O:France
A:Elsssische Volksweise
B:Frau Nachtigall (Straburg - 1928)
Z:<anamnese@laposte.net> -- http://anamnese.fr.st
N:p.8
M:3/4
L:1/4
Q:1/4=150
K:E
B, | EEF | GG B/ c/ | (B3/2A/) G/B/ | F2 z | BB e/ B/ |
G>A B | cB A/ G/ | F>G A/c/ | B/ A/ B B | G2 ||
